packages/core/src/svgs/tokens/branded/PLT.svg

<svg width="24" height="24" viewBox="0 0 24 24" fill="none" xmlns="http://www.w3.org/2000/svg">
<path fill-rule="evenodd" clip-rule="evenodd" d="M12.0009 2.00122L22 11.998L12.0009 21.9988L2 11.998L12.0009 2.00122ZM12.0596 2.82816L21.1776 11.998L12.0596 21.0619L2.82694 11.998L12.0596 2.82816Z" fill="#0A3957"/>
<path d="M9.73379 18.0034L11.0878 19.3287L11.5554 18.8169L10.696 17.9617L12.0035 16.6478L13.2935 18.0029L12.4612 18.8163L12.9788 19.3281L14.2428 18.0029L12.0035 15.6843L9.73379 18.0034ZM12.5889 13.7644L11.9906 14.3526L11.4124 13.7644H12.5889ZM12.8917 6.61682L11.53 7.95435L11.9895 8.44724L12.8912 7.50145L13.3441 7.95435L12.5053 8.84368L12.9641 9.25724L13.7893 8.35961L15.648 10.1901L16.5202 9.3448L17.8783 10.6505L18.3541 10.1901L16.5202 8.35961L15.648 9.25724L12.8917 6.61682ZM5.21946 10.7347L4.77832 11.1888L6.05056 12.5321L7.93864 10.6647L7.47514 10.1801L6.05056 11.5622L5.21946 10.7347ZM15.5868 11.1165L15.1421 10.6659L13.7952 11.9335L15.6244 13.8591L16.1102 13.398L14.7563 11.9451L15.5868 11.1165Z" fill="#0A3957"/>
<path d="M18.7057 10.7552L19.1174 11.2369L17.7628 12.4957L15.9741 10.5583L16.4771 10.0841L17.8511 11.5446L18.7057 10.7552Z" fill="#0A3957"/>
<path d="M18.7199 12.6179L19.1316 13.0991L17.7771 14.3577L15.623 12.0721L16.1513 11.5945L17.8381 13.3902L18.7199 12.6179ZM8.47488 11.2098L8.9372 10.7775L10.2342 12.0973L8.33137 13.949L7.86377 13.4691L9.27307 12.0708L8.47488 11.2098Z" fill="#0A3957"/>
<path d="M5.22003 12.5552L4.77889 13.0092L6.05113 14.3527L8.3674 12.0882L7.9045 11.6029L6.05172 13.3828L5.22003 12.5552ZM11.5218 4.3053L12.0171 3.8324L12.513 4.3053L12.0171 4.77878L11.5218 4.3053ZM3.80957 12.0005L4.30481 11.527L4.80066 12.0005L4.30481 12.4734L3.80957 12.0005ZM19.1823 11.9999L19.6776 11.527L20.1728 11.9999L19.6776 12.4729L19.1823 11.9999ZM11.5218 19.7798L12.0171 19.3069L12.5123 19.7798L12.0171 20.2533L11.5218 19.7798ZM11.5218 17.98L12.0171 17.5065L12.5123 17.9793L12.0171 18.4523L11.5218 17.98ZM11.0619 4.77937L7.88273 7.91028L8.31211 8.39023L11.0619 5.63754L11.5377 6.0922L8.45856 9.27429L7.45748 8.39023L5.67352 10.2077L6.08643 10.6513L7.45689 9.27375L8.45856 10.2077L10.1855 8.39023L11.0619 9.27375L11.5377 8.76902L10.7113 7.91028L12.8893 5.63754L15.618 8.39023L16.0431 7.91028L12.8893 4.77937L11.9629 5.63813L11.0619 4.77937Z" fill="#0A3957"/>
<path d="M9.31008 17.5112L8.4043 16.6096L8.83838 16.1466L9.31008 16.6096L10.6505 15.245L10.1889 14.7851L10.6505 14.3068L11.581 15.2455L9.31008 17.5112ZM14.6479 17.5112L15.5537 16.6096L15.1196 16.1466L14.6479 16.6096L13.3074 15.245L13.7691 14.7851L13.3074 14.3068L12.3769 15.2455L14.6479 17.5112Z" fill="#0A3957"/>
<path d="M10.8249 9.64526H10.0772L9.64844 10.2335H10.8249V9.64526Z" fill="#0A3957"/>
<path d="M13.1772 9.64526H13.9255L14.3537 10.2335H13.1772V9.64526Z" fill="#0A3957"/>
<path fill-rule="evenodd" clip-rule="evenodd" d="M11.6602 9.64526V10.5082L10.6662 11.5852L11.0879 11.9704L7.93823 15.1871L7.5565 14.762L7.98588 14.3049L7.52004 13.8402L6.59424 14.762L7.93823 16.1842L11.0032 13.1745H13.0307L16.068 16.1842L17.4915 14.7625L16.578 13.8332L16.1017 14.289L16.5163 14.762L16.0687 15.1878L12.906 11.9704L13.3671 11.5845L12.3655 10.5082V9.64526H11.6602ZM12.0106 11.9984L11.4125 12.5865H12.5888L12.0106 11.9984ZM11.9989 11.0526L11.5036 11.5255L11.9989 11.9984L12.4948 11.5255L11.9989 11.0526Z" fill="#0A3957"/>
</svg>

<svg xmlns="http://www.w3.org/2000/svg" width="24" height="24" fill="none" viewBox="0 0 24 24">
    <path fill="#0A3957" fill-rule="evenodd" d="m12 2.001 10 9.997-10 10-10-10zm.06.827 9.118 9.17-9.118 9.064-9.233-9.064z" clip-rule="evenodd"/>
    <path fill="#0A3957" d="m9.734 18.003 1.354 1.326.467-.512-.859-.855 1.308-1.314 1.29 1.355-.833.813.518.512 1.264-1.325-2.24-2.319zm2.855-4.239-.598.589-.579-.589zm.303-7.147L11.53 7.954l.46.493.901-.946.453.453-.839.89.46.413.824-.897 1.859 1.83.872-.845 1.358 1.305.476-.46-1.834-1.83-.872.897zm-7.673 4.118-.44.454 1.272 1.343 1.888-1.867-.464-.485-1.424 1.382zm10.368.382-.445-.451-1.347 1.268 1.83 1.925.485-.461-1.354-1.453z"/>
    <path fill="#0A3957" d="m18.706 10.755.411.482-1.354 1.259-1.789-1.938.503-.474 1.374 1.46z"/>
    <path fill="#0A3957" d="m18.72 12.618.412.481-1.355 1.259-2.154-2.286.528-.477 1.687 1.795zM8.475 11.21l.462-.433 1.297 1.32-1.903 1.852-.467-.48 1.41-1.398z"/>
    <path fill="#0A3957" d="m5.22 12.555-.441.454 1.272 1.344 2.316-2.265-.463-.485-1.852 1.78zm6.302-8.25.495-.473.496.473-.496.474zM3.81 12.001l.495-.474.496.474-.496.472zM19.182 12l.496-.473.495.473-.495.473zm-7.66 7.78.495-.473.495.473-.495.473zm0-1.8.495-.474.495.473-.495.473zm-.46-13.2-3.18 3.13.43.48 2.75-2.752.476.454-3.08 3.182-1-.884-1.784 1.818.412.443 1.37-1.377 1.003.934 1.726-1.818.877.884.476-.505-.827-.859 2.178-2.272 2.729 2.752.425-.48-3.154-3.13-.926.858zM9.31 17.511l-.906-.901.434-.463.472.463 1.34-1.365-.461-.46.461-.478.931.938zm5.338 0 .906-.901-.434-.463-.472.463-1.34-1.365.461-.46-.462-.478-.93.938z"/>
    <path fill="#0A3957" d="M10.825 9.645h-.748l-.429.588h1.177zm2.352 0h.749l.428.588h-1.177z"/>
    <path fill="#0A3957" fill-rule="evenodd" d="M11.66 9.645v.863l-.994 1.077.422.385-3.15 3.217-.381-.425.429-.457-.466-.465-.926.922 1.344 1.422 3.065-3.01h2.028l3.037 3.01 1.423-1.422-.913-.929-.476.456.414.473-.447.426-3.163-3.218.461-.386-1.001-1.076v-.863zm.35 2.353-.598.588h1.177zm-.01-.945-.495.472.495.473.496-.473z" clip-rule="evenodd"/>
</svg>
